Obsidian/actions/16s/mail-encrypted-full.svg

<svg height="16" viewBox="0 0 16 16" width="16" xmlns="http://www.w3.org/2000/svg"><path d="m2.0058594 2.0039062c-1.10800003 0-2.00000002.8920001-2.00000002 2v7.9999998c0 1.108.89199999 2 2.00000002 2h7.9316406c-.0013-.02081-.0019531-.04165-.0019531-.0625v-3c.0000553-.55226.4477401-.9999398 1.0000001-.9999998v-.5c0-1.3689 1.1311-2.5 2.5-2.5s2.5 1.1311 2.5 2.5v.5c.02345-.0001736.046902.0004843.070312.0019532v-5.9394532c0-1.108-.892-1.9999999-2-2zm0 2 6 3 5.9999996-3v2l-5.9999996 3-6-3zm11.4296876 3.9375a1.5 1.5 0 0 0 -1.5 1.5v1.4999998h-1v3h5v-3h-1v-1.4999998a1.5 1.5 0 0 0 -1.5-1.5zm0 1a.5.5 0 0 1 .5.5v1.4999998h-1v-1.4999998a.5.5 0 0 1 .5-.5z" fill="#bebebe"/></svg>

<svg xmlns="http://www.w3.org/2000/svg" width="16" height="16" viewBox="0 0 16 16">
 <defs>
  <style id="current-color-scheme" type="text/css">
   .ColorScheme-Text { color:#bebebe; } .ColorScheme-Highlight { color:#4285f4; }
  </style>
 </defs>
 <path style="fill:currentColor" class="ColorScheme-Text" d="M 2.0058594 2.0039062 C 0.89785937 2.0039062 0.005859375 2.8959063 0.005859375 4.0039062 L 0.005859375 12.003906 C 0.005859375 13.111906 0.89785937 14.003906 2.0058594 14.003906 L 9.9375 14.003906 C 9.9362 13.983096 9.9355469 13.962256 9.9355469 13.941406 L 9.9355469 10.941406 C 9.9356022 10.389146 10.383287 9.9414662 10.935547 9.9414062 L 10.935547 9.4414062 C 10.935547 8.0725062 12.066647 6.9414062 13.435547 6.9414062 C 14.804447 6.9414062 15.935547 8.0725062 15.935547 9.4414062 L 15.935547 9.9414062 C 15.958997 9.9412326 15.982449 9.9418905 16.005859 9.9433594 L 16.005859 4.0039062 C 16.005859 2.8959062 15.113859 2.0039063 14.005859 2.0039062 L 2.0058594 2.0039062 z M 2.0058594 4.0039062 L 8.0058594 7.0039062 L 14.005859 4.0039062 L 14.005859 6.0039062 L 8.0058594 9.0039062 L 2.0058594 6.0039062 L 2.0058594 4.0039062 z M 13.435547 7.9414062 A 1.5 1.5 0 0 0 11.935547 9.4414062 L 11.935547 10.941406 L 10.935547 10.941406 L 10.935547 13.941406 L 15.935547 13.941406 L 15.935547 10.941406 L 14.935547 10.941406 L 14.935547 9.4414062 A 1.5 1.5 0 0 0 13.435547 7.9414062 z M 13.435547 8.9414062 A 0.5 0.5 0 0 1 13.935547 9.4414062 L 13.935547 10.941406 L 12.935547 10.941406 L 12.935547 9.4414062 A 0.5 0.5 0 0 1 13.435547 8.9414062 z"/>
</svg>
